X: 4
T: The Rakes Of Clonmel
R: jig
M: 6/8
L: 1/8
K: Amin
|: Aaa aea | age e2f | gfg ege | dBG GAB | cBc dcd | edc Bcd | ecA GED | EFG A2G :||: aea aed | ^cAA A2f |


Tune 1130	Setting 14393

